X:1
T:Je me contente 3v
T:Je me contente 3v
T:Tielman Susato
T:Source : Le premier Livre des Chansons à 3 parties---Anvers---T.Susato---1544. Editor : André Vierendeels (03/02/15).
C:Tielman Susato
%%score [ 1 2 3 ]
L:1/8
Q:1/4=84
M:2/2
K:F
V:1 treble nm="Superius" snm="S"
V:2 treble-8 nm="Tenor" snm="T"
V:3 bass nm="Bassus" snm="B"
V:1
 F4 F4- | F2 F2 G4 | A4 z2 A2 | A2 F2 B4 | G2 A3 G G2- | G2 F2 G2 B2 | A3 G FE G2- | GF F4 E2 | %8
w: Je me|_ con- ten-|te sans|a- voir io-|ys- san- * *|* * ce, io-|ys- * * * san-||
 F4 F4 | B2 B2 A4 | z2 A2 A2 F2 | B4 A4 | G4 z2 F2 | c2 c2 AB cA | B2 A4 G2 | A8 | z2 c2 c2 c2 | %17
w: ce, da-|mours iay trop|à souf- fis-|san- *|ce, pour|le jeu j'en- * * *|veulx quic- *|ter,|car par trop|
 c2 A2 B2 B2 | A3 B c2 d2- | dc c4 B2 | c2 G2 G2 G2 | c3 B AG A2- | A2 G2 F2 B2- | BA A4 G2 | A8 | %25
w: lon- gu'est les- pe-|ran- * * *||ce du bien qu'ay|vou- * * * lu|_ _ _ de-|* * * si-|rer,|
 z4 c4- | c4 c4 | B4 A2 A2 | A2 G2 F3 E/D/ | C2 E2 D4 | C4 z2 G2 | c3 B A2 A2 | B3 A G2 c2- | %33
w: dont|_ pren-|dre veulx en|pa- ti- en- * *||ce, en|brief _ _ da-|mours _ _ me-|
 cB AG A2 G2- | GF F4 E2 | F4 z4 | c4 c2 B2 | A2 A2 A2 G2 | F6 ED | C2 E2 D4 | C4 z2 G2 | %41
w: _ _ _ _ _ re-|* * * ti-|rer,|dont pren- dre|veulx en pa- ti-|en- * *||ce, en|
 c3 B A2 A2 | B3 A G2 c2- | cB AG F2 G2- | GF F4 E2 | F8 |] %46
w: brief _ _ da-|mours _ _ me|_ _ _ _ re- *|* * * ti-|rer.|
V:2
 F4 B4- | B2 A2 B2 c2- | cBAG FGAB | c2 d2 d2 B2 | c6 B2 | A2 B4 AG | F2 d2 d2 c2 | B2 A2 G4 | %8
w: Je me|_ con- ten- *||te sans a- voir|io- ys-|san- * * *|ce, sans a- voir|io- ys- san-|
 F2 F2 B3 c | d2 B2 c2 d2- | d2 cB A2 d2 | d2 B2 c2 d2 | G2 c2 f2 f2 | e2 c2 f3 e | d2 c2 B2 c2- | %15
w: ce, da- mours iay|trop à souf- fis-||san- * * *|ce, pour le jeu|j'en veulx quic- *||
 cBAG F2 f2 | f2 e2 f3 e/d/ | c2 d2 d2 B2 | c3 d e2 f2- | feed/c/ d4 | c4 z2 c2 | c2 c2 f3 e | %22
w: * * * * ter, car|par trop lon- * *|* gu'est les- pe-|ran- * * *||ce du|bien qu'ay vou- *|
 dc B2 A2 d2 | c2 BA B2 c2 | F4 z2 c2 | c3 B A3 G | FGAB c2 A2 | Bc d4 cB | AB c2 FGAG | %29
w: * * * lu de-|* * * * si-|rer, dont|pren- * dre _|veulx _ _ _ _ en|pa- * * ti- *|en- * * * * * *|
"^-natural" AB c4 B2 | c8 | z2 c2 f3 e | d2 d2 e3 d | c2 d3 cBA | BAAG/F/ G4 | F8- | F4 z4 | %37
w: |ce,|en brief _|_ da- mours _|_ me _ _ _|re- * * * * ri-|rer,|_|
 f4 f2 e2 | d2 d2 d2 cB |"^-natural" A/G/A/B/ c4 B2 | c8 | z2 c2 f3 e | d2 B2 c3 B | AG d3 cBA | %44
w: dont pren- dre|veulx en pa- ti- *|en- * * * * *|ce,|en brief _|_ da- mours _|_ _ me _ _ _|
 BAAG/F/ G4 | F8 |] %46
w: re- * * * * ti-|rer.|
V:3
 F,4 B,,3 C, | D,E, F,4 E,2 | F,3 G, A,2 F,2 | F,2 D,2 G,4 | C,2 F,4 G,2 | D,2 D,2 G,2 G,2 | %6
w: Je me _|_ _ _ con-|ten _ _ te|sans a- voir|io- ys- san-|ce, io- ys- san-|
 A,2 D,4 _E,2- | E,2 F,2 C,4 | F,4 z2 B,,2 | B,,2 B,,2 F,2 D,2 | D,3 E, F,2 D,2 | G,4 F,3 E,/D,/ | %12
w: * ce, io-|* ys- san-|ce, da-|mours iay trop souf-|fis- * * san-||
 E,4 D,4 | C,2 F,4 F,2 | B,,2 F,2 G,2 C,2 | F,4 z2 F,2 | C2 C2 F,3 G, | A,2 F,2 G,4 | F,2 A,4 F,2 | %19
w: * ce,|pour ce le|jeu j'en veulx quic-|ter, car|par trop lon- *|* gu'est les-|pe- ran- *|
 A,4 G,4 | C,4 C,2 C,2 | C,2 F,3 E, D,C, | D,2 _E,2 F,2 B,,2 | F,4 z2 C2 | C3 B, A,2 A,2 | %25
w: |ce du bien|qu'ay vou- * * *|* lu de- si-|rer, dont|pren- dre veulx en|
 A,3 G, F,4- | F,2 E,D, C,2 F,2 | G,2 G,2 D,2 D,2 | F,2 E,2 D,3 E, | F,2 E,2 F,2 G,2 | %30
w: pa- ti- en-|* * * ce, dont|pren- dre veulx en|pa- ti- en- *||
 C,2 F,2 C3 B, | A,3 G, F,4 | G,4 C,2 C,2 | F,3 E, D,2 _E,2 | _E,2 F,2 C,4 | z2 C2 C3 B, | %36
w: ce, en brief da-|mours me re-|ti- re, en|brief da- mours me|re- ti- rer,|dont pren- dre|
 A,2 A,2 A,2 G,2 | F,4 F,2 C,2 | D,2 B,,C, D,E, F,2- | F,2 E,2 F,2 G,2 | C,2 F,2 C3 B, | %41
w: veulx en pa- ti-|en- ce, dont|pren- dre _ veulx _ en|_ pa- ti- en-|ce, en brief da-|
 A,3 G, F,4 | G,4 C,2 C,2 | F,3 E, D,2 _E,2- | E,2 F,2 C,4 | F,8 |] %46
w: mour me re-|ti- rer, en|brief da- mours me|_ re- ti-|rer.|

